assets/icons/qa.svg

<svg width="20" height="20" viewBox="0 0 20 20" fill="none" xmlns="http://www.w3.org/2000/svg">
<path d="M10.002 17.7087C11.6765 17.7083 13.3053 17.1627 14.6422 16.1543C15.979 15.146 16.9511 13.7298 17.4116 12.1198C17.872 10.5099 17.7956 8.79378 17.1941 7.23108C16.5925 5.66838 15.4984 4.34407 14.0773 3.45842C12.6562 2.57277 10.9854 2.17397 9.31745 2.32231C7.64955 2.47065 6.07531 3.15808 4.83281 4.28062C3.59031 5.40317 2.74714 6.89978 2.4308 8.54412C2.11446 10.1885 2.34217 11.8911 3.07949 13.3945C3.16949 13.5778 3.19949 13.7845 3.15366 13.9828L2.47366 16.9295C2.45449 17.0122 2.45669 17.0984 2.48005 17.18C2.50341 17.2616 2.54716 17.3359 2.60719 17.396C2.66721 17.456 2.74153 17.4997 2.82314 17.5231C2.90475 17.5465 2.99097 17.5487 3.07366 17.5295L6.01949 16.8487C6.21839 16.8051 6.42622 16.8316 6.60783 16.9237C7.66399 17.4423 8.82536 17.7109 10.002 17.7087Z" stroke="currentColor" stroke-width="1.3" stroke-linecap="round" stroke-linejoin="round"/>
<path d="M7.75293 8.09119C7.75289 7.73432 7.83778 7.38256 8.00057 7.06498C8.16336 6.7474 8.39939 6.47311 8.68915 6.26479C8.97891 6.05646 9.31408 5.92008 9.66697 5.8669C10.0199 5.81373 10.3803 5.84529 10.7186 5.95898C11.0569 6.07267 11.3633 6.26523 11.6124 6.52074C11.8616 6.77624 12.0463 7.08737 12.1515 7.42841C12.2566 7.76945 12.2791 8.13061 12.217 8.48205C12.1549 8.83348 12.0102 9.16511 11.7946 9.44953C11.7107 9.54252 11.6217 9.63072 11.5279 9.71369C11.4513 9.77869 11.4138 9.80536 11.3388 9.85619L10.5229 10.4187C10.3212 10.5575 10.1563 10.7433 10.0425 10.96C9.92869 11.1768 9.86934 11.418 9.8696 11.6629" stroke="currentColor" stroke-width="1.3" stroke-linecap="round" stroke-linejoin="round"/>
<path d="M9.85872 14.7839C10.319 14.7839 10.6921 14.4108 10.6921 13.9505C10.6921 13.4903 10.319 13.1172 9.85872 13.1172C9.39849 13.1172 9.02539 13.4903 9.02539 13.9505C9.02539 14.4108 9.39849 14.7839 9.85872 14.7839Z" fill="currentColor"/>
</svg>

<svg xmlns="http://www.w3.org/2000/svg" width="20" height="20" fill="none" viewBox="0 0 20 20"><path stroke="currentColor" stroke-linecap="round" stroke-linejoin="round" stroke-width="1.3" d="M10.002 17.709a7.709 7.709 0 1 0-6.923-4.314c.09.183.12.39.075.588l-.68 2.947a.5.5 0 0 0 .6.6l2.945-.681a.88.88 0 0 1 .589.075 7.7 7.7 0 0 0 3.394.785"/><path stroke="currentColor" stroke-linecap="round" stroke-linejoin="round" stroke-width="1.3" d="M7.753 8.091a2.25 2.25 0 1 1 4.042 1.359 3 3 0 0 1-.267.264 2 2 0 0 1-.19.142l-.815.563a1.51 1.51 0 0 0-.653 1.244"/><path fill="currentColor" d="M9.859 14.784a.833.833 0 1 0 0-1.667.833.833 0 0 0 0 1.667"/></svg>
